src/assets/svg/5-store/1-frete.svg

<svg width="48" height="48" viewBox="0 0 48 48" fill="none" xmlns="http://www.w3.org/2000/svg">
<path d="M11.2 39.95C9.56667 39.95 8.175 39.375 7.025 38.225C5.875 37.075 5.3 35.6833 5.3 34.05H2V11C2 10.2 2.3 9.5 2.9 8.9C3.5 8.3 4.2 8 5 8H33.95V16.35H39.2L46 25.4V34.05H42.45C42.45 35.6833 41.875 37.075 40.725 38.225C39.575 39.375 38.1833 39.95 36.55 39.95C34.9167 39.95 33.525 39.375 32.375 38.225C31.225 37.075 30.65 35.6833 30.65 34.05H17.1C17.1 35.6833 16.525 37.075 15.375 38.225C14.225 39.375 12.8333 39.95 11.2 39.95ZM11.2 36.95C12 36.95 12.6833 36.6667 13.25 36.1C13.8167 35.5333 14.1 34.85 14.1 34.05C14.1 33.25 13.8167 32.5667 13.25 32C12.6833 31.4333 12 31.15 11.2 31.15C10.4 31.15 9.71667 31.4333 9.15 32C8.58333 32.5667 8.3 33.25 8.3 34.05C8.3 34.85 8.58333 35.5333 9.15 36.1C9.71667 36.6667 10.4 36.95 11.2 36.95ZM5 31.05H6.1C6.66667 30.15 7.38333 29.4333 8.25 28.9C9.11667 28.3667 10.0833 28.1 11.15 28.1C12.2167 28.1 13.1917 28.375 14.075 28.925C14.9583 29.475 15.6833 30.1833 16.25 31.05H30.95V11H5V31.05ZM36.55 36.95C37.35 36.95 38.0333 36.6667 38.6 36.1C39.1667 35.5333 39.45 34.85 39.45 34.05C39.45 33.25 39.1667 32.5667 38.6 32C38.0333 31.4333 37.35 31.15 36.55 31.15C35.75 31.15 35.0667 31.4333 34.5 32C33.9333 32.5667 33.65 33.25 33.65 34.05C33.65 34.85 33.9333 35.5333 34.5 36.1C35.0667 36.6667 35.75 36.95 36.55 36.95ZM33.95 26.75H43.25L37.7 19.35H33.95V26.75Z" fill="#FDA916"/>
</svg>

<svg width="48" height="48" fill="none" xmlns="http://www.w3.org/2000/svg"><path d="M11.2 39.95c-1.633 0-3.025-.575-4.175-1.725-1.15-1.15-1.725-2.542-1.725-4.175H2V11c0-.8.3-1.5.9-2.1C3.5 8.3 4.2 8 5 8h28.95v8.35h5.25L46 25.4v8.65h-3.55c0 1.633-.575 3.025-1.725 4.175-1.15 1.15-2.542 1.725-4.175 1.725s-3.025-.575-4.175-1.725c-1.15-1.15-1.725-2.542-1.725-4.175H17.1c0 1.633-.575 3.025-1.725 4.175-1.15 1.15-2.542 1.725-4.175 1.725Zm0-3c.8 0 1.483-.283 2.05-.85.567-.567.85-1.25.85-2.05 0-.8-.283-1.483-.85-2.05a2.794 2.794 0 0 0-2.05-.85c-.8 0-1.483.283-2.05.85a2.794 2.794 0 0 0-.85 2.05c0 .8.283 1.483.85 2.05.567.567 1.25.85 2.05.85ZM5 31.05h1.1a6.624 6.624 0 0 1 2.15-2.15c.867-.533 1.833-.8 2.9-.8s2.042.275 2.925.825a6.967 6.967 0 0 1 2.175 2.125h14.7V11H5v20.05Zm31.55 5.9c.8 0 1.483-.283 2.05-.85.567-.567.85-1.25.85-2.05 0-.8-.283-1.483-.85-2.05a2.794 2.794 0 0 0-2.05-.85c-.8 0-1.483.283-2.05.85a2.794 2.794 0 0 0-.85 2.05c0 .8.283 1.483.85 2.05.567.567 1.25.85 2.05.85Zm-2.6-10.2h9.3l-5.55-7.4h-3.75v7.4Z" fill="#FDA916"/></svg>
